Numix-GalliumOS/24/devices/media-flash-cf.svg

<?xml version="1.0" encoding="UTF-8" standalone="no"?>
<svg
   xmlns:dc="http://purl.org/dc/elements/1.1/"
   xmlns:cc="http://creativecommons.org/ns#"
   xmlns:rdf="http://www.w3.org/1999/02/22-rdf-syntax-ns#"
   xmlns:svg="http://www.w3.org/2000/svg"
   xmlns="http://www.w3.org/2000/svg"
   xmlns:sodipodi="http://sodipodi.sourceforge.net/DTD/sodipodi-0.dtd"
   xmlns:inkscape="http://www.inkscape.org/namespaces/inkscape"
   width="24"
   height="24"
   viewBox="0 0 24 24"
   id="svg1047"
   version="1.1"
   inkscape:version="0.91 r"
   sodipodi:docname="media-flash-cf.svg">
  <metadata
     id="metadata1118">
    <rdf:RDF>
      <cc:Work
         rdf:about="">
        <dc:format>image/svg+xml</dc:format>
        <dc:type
           rdf:resource="http://purl.org/dc/dcmitype/StillImage" />
      </cc:Work>
    </rdf:RDF>
  </metadata>
  <sodipodi:namedview
     pagecolor="#ffffff"
     bordercolor="#666666"
     borderopacity="1"
     objecttolerance="10"
     gridtolerance="10"
     guidetolerance="10"
     inkscape:pageopacity="0"
     inkscape:pageshadow="2"
     inkscape:window-width="640"
     inkscape:window-height="480"
     id="namedview1116" />
  <defs
     id="defs1049">
    <linearGradient
       gradientTransform="scale(.5)"
       id="linear1"
       y1="11"
       y2="42"
       gradientUnits="userSpaceOnUse"
       x2="0">
      <stop
         offset="0"
         style="stop-color:#e5e5e5"
         id="stop1052" />
      <stop
         offset="1"
         style="stop-color:#aaa"
         id="stop1054" />
    </linearGradient>
    <linearGradient
       gradientTransform="matrix(.5 0 0 .5 0 1)"
       id="linear2"
       y1="3.656"
       y2="21"
       gradientUnits="userSpaceOnUse"
       x2="0">
      <stop
         offset="0"
         style="stop-color:#ecd562"
         id="stop1057" />
      <stop
         offset="1"
         style="stop-color:#df8122"
         id="stop1059" />
    </linearGradient>
    <linearGradient
       gradientTransform="matrix(.03279 0 0 .01647 .14769 13.7038)"
       id="linear0"
       y1="366.648"
       y2="609.505"
       gradientUnits="userSpaceOnUse"
       x2="0">
      <stop
         offset="0"
         style="stop-color:#000;stop-opacity:0"
         id="stop1062" />
      <stop
         offset=".5"
         style="stop-color:#000;stop-opacity:.404"
         id="stop1064" />
      <stop
         offset="1"
         style="stop-color:#000;stop-opacity:0"
         id="stop1066" />
    </linearGradient>
    <radialGradient
       cx="605.714"
       cy="486.648"
       gradientTransform="matrix(.03279 0 0 .01647 .15414 13.7038)"
       id="radial0"
       r="117.143"
       gradientUnits="userSpaceOnUse">
      <stop
         offset="0"
         style="stop-color:#000;stop-opacity:.404"
         id="stop1069" />
      <stop
         offset="1"
         style="stop-color:#000;stop-opacity:0"
         id="stop1071" />
    </radialGradient>
    <radialGradient
       cx="5"
       cy="7.1"
       gradientTransform="matrix(2.28528 .06529 -.04762 1.66667 -6.08829 -.1598)"
       id="radial3"
       r="21"
       gradientUnits="userSpaceOnUse">
      <stop
         offset="0"
         style="stop-color:#fff;stop-opacity:.4"
         id="stop1074" />
      <stop
         offset="1"
         style="stop-color:#fff;stop-opacity:0"
         id="stop1076" />
    </radialGradient>
    <radialGradient
       cx="605.714"
       cy="486.648"
       gradientTransform="matrix(-.03279 0 0 .01647 23.84609 13.7038)"
       id="radial1"
       r="117.143"
       gradientUnits="userSpaceOnUse">
      <stop
         offset="0"
         style="stop-color:#000;stop-opacity:.404"
         id="stop1079" />
      <stop
         offset="1"
         style="stop-color:#000;stop-opacity:0"
         id="stop1081" />
    </radialGradient>
    <radialGradient
       cx="9"
       cy="19.149"
       gradientTransform="matrix(1.90909 0 0 1.40909 -8.18182 -4.98219)"
       id="radial2"
       r="22"
       gradientUnits="userSpaceOnUse">
      <stop
         offset="0"
         style="stop-color:#787878"
         id="stop1084" />
      <stop
         offset="1"
         style="stop-color:#3c3c3c"
         id="stop1086" />
    </radialGradient>
  </defs>
  <path
     style="fill:url(#linear0)"
     d="M 4.082031 19.742188 L 19.917969 19.742188 L 19.917969 23.742188 L 4.082031 23.742188 Z "
     id="path1088" />
  <path
     style="fill:url(#radial0)"
     d="M 19.917969 19.742188 C 19.917969 19.742188 19.917969 23.742188 19.917969 23.742188 C 21.605469 23.746094 24 22.84375 24 21.742188 C 24 20.636719 22.117188 19.742188 19.917969 19.742188 Z "
     id="path1090" />
  <path
     style="fill:url(#radial1)"
     d="M 4.082031 19.742188 C 4.082031 19.742188 4.082031 23.742188 4.082031 23.742188 C 2.394531 23.746094 0 22.84375 0 21.742188 C 0 20.636719 1.886719 19.742188 4.082031 19.742188 Z "
     id="path1092" />
  <g
     style="stroke-linecap:round"
     id="g1094">
    <path
       style="fill:url(#radial2);stroke:#282828;stroke-linejoin:round"
       d="M 3.320312 8.5 L 44.679688 8.5 C 45.132812 8.5 45.5 8.867188 45.5 9.320312 L 45.5 43.679688 C 45.5 44.132812 45.132812 44.5 44.679688 44.5 L 3.320312 44.5 C 2.867188 44.5 2.5 44.132812 2.5 43.679688 L 2.5 9.320312 C 2.5 8.867188 2.867188 8.5 3.320312 8.5 Z "
       transform="scale(.5)"
       id="path1096" />
    <path
       style="fill:none;stroke:url(#radial3)"
       d="M 3.5 9.5 L 44.5 9.5 L 44.5 43.5 L 3.5 43.5 Z "
       transform="scale(.5)"
       id="path1098" />
  </g>
  <path
     style="fill:url(#linear1)"
     d="M 3 5.5 C 2.722656 5.5 2.5 5.722656 2.5 6 L 2.5 11.5 L 3 11.5 L 3 20.5 C 3 20.734375 3.265625 21 3.5 21 L 20.5 21 C 20.734375 21 21 20.734375 21 20.5 L 21 11.5 L 21.5 11.5 L 21.5 6 C 21.5 5.722656 21.277344 5.5 21 5.5 Z "
     id="path1100" />
  <path
     style="fill:#fff"
     d="M 3.5 11 L 3.5 19.5 C 3.5 19.734375 3.765625 20 4 20 L 20 20 C 20.234375 20 20.5 19.734375 20.5 19.5 L 20.5 11 "
     id="path1102" />
  <path
     style="fill:url(#linear2)"
     d="M 3.5 11.5 L 3.5 6.457031 C 3.5 6.242188 3.765625 6 4 6 L 20 6 C 20.234375 6 20.5 6.242188 20.5 6.457031 L 20.5 11.5 "
     id="path1104" />
  <path
     style="fill:#fff;stroke:#ba5d12;stroke-linejoin:round;stroke-width:.784"
     d="M 58.075843 30.99986 L 63.999826 23.999891 L 69.92381 30.99986 Z "
     transform="matrix(.31651 0 0 .32143 -8.25658 -.58928)"
     id="path1106" />
  <g
     style="fill:#282828"
     id="g1108">
    <path
       d="M 11.984375 17.351562 L 12.945312 17.667969 C 12.882812 17.960938 12.78125 18.207031 12.640625 18.402344 C 12.503906 18.601562 12.328125 18.75 12.125 18.851562 C 11.917969 18.949219 11.660156 19 11.339844 19 C 10.957031 19 10.640625 18.9375 10.394531 18.816406 C 10.152344 18.695312 9.941406 18.480469 9.765625 18.171875 C 9.589844 17.863281 9.5 17.46875 9.5 16.992188 C 9.5 16.351562 9.65625 15.859375 9.964844 15.515625 C 10.277344 15.171875 10.71875 15 11.289062 15 C 11.738281 15 12.085938 15.097656 12.339844 15.296875 C 12.597656 15.492188 12.789062 15.792969 12.910156 16.203125 L 11.945312 16.4375 C 11.910156 16.320312 11.875 16.234375 11.839844 16.179688 C 11.777344 16.085938 11.703125 16.015625 11.613281 15.96875 C 11.527344 15.917969 11.425781 15.894531 11.316406 15.894531 C 11.070312 15.894531 10.878906 16.003906 10.746094 16.222656 C 10.648438 16.382812 10.597656 16.636719 10.597656 16.984375 C 10.597656 17.410156 10.65625 17.707031 10.777344 17.867188 C 10.894531 18.023438 11.0625 18.101562 11.277344 18.101562 C 11.488281 18.101562 11.644531 18.039062 11.75 17.910156 C 11.859375 17.78125 11.9375 17.597656 11.984375 17.351562 "
       id="path1110" />
    <path
       d="M 13.480469 15.066406 L 16.183594 15.066406 L 16.183594 15.894531 L 14.578125 15.894531 L 14.578125 16.570312 L 15.949219 16.570312 L 15.949219 17.351562 L 14.578125 17.351562 L 14.578125 18.929688 L 13.480469 18.929688 L 13.480469 15.066406 "
       id="path1112" />
    <path
       d="M 19.5 18.929688 L 16.546875 18.929688 C 16.582031 18.613281 16.683594 18.3125 16.855469 18.035156 C 17.027344 17.753906 17.347656 17.421875 17.820312 17.039062 C 18.109375 16.808594 18.292969 16.628906 18.375 16.507812 C 18.453125 16.386719 18.496094 16.273438 18.496094 16.164062 C 18.496094 16.046875 18.453125 15.945312 18.375 15.863281 C 18.296875 15.777344 18.195312 15.734375 18.074219 15.734375 C 17.949219 15.734375 17.847656 15.777344 17.765625 15.863281 C 17.6875 15.949219 17.632812 16.101562 17.605469 16.320312 L 16.621094 16.234375 C 16.660156 15.929688 16.730469 15.695312 16.832031 15.527344 C 16.9375 15.355469 17.082031 15.226562 17.269531 15.136719 C 17.457031 15.046875 17.714844 15 18.046875 15 C 18.394531 15 18.664062 15.042969 18.855469 15.128906 C 19.046875 15.214844 19.199219 15.347656 19.308594 15.527344 C 19.421875 15.703125 19.476562 15.90625 19.476562 16.125 C 19.476562 16.363281 19.414062 16.585938 19.285156 16.800781 C 19.160156 17.015625 18.929688 17.25 18.597656 17.507812 C 18.398438 17.65625 18.265625 17.761719 18.199219 17.820312 C 18.132812 17.882812 18.054688 17.960938 17.964844 18.054688 L 19.5 18.054688 L 19.5 18.929688 "
       id="path1114" />
  </g>
</svg>

<svg xmlns="http://www.w3.org/2000/svg" viewBox="0 0 24 24" xmlns:xlink="http://www.w3.org/1999/xlink">
 <defs>
  <linearGradient gradientTransform="scale(.5)" id="linear1" y1="11" y2="42" gradientUnits="userSpaceOnUse" x2="0">
   <stop style="stop-color:#e5e5e5"/>
   <stop offset="1" style="stop-color:#aaa"/>
  </linearGradient>
  <linearGradient gradientTransform="matrix(.5 0 0 .5 0 1)" id="linear2" y1="3.656" y2="21" gradientUnits="userSpaceOnUse" x2="0">
   <stop style="stop-color:#ecd562"/>
   <stop offset="1" style="stop-color:#df8122"/>
  </linearGradient>
  <linearGradient gradientTransform="matrix(.03279 0 0 .01647 .14769 13.7038)" id="linear0" y1="366.65" y2="609.5" gradientUnits="userSpaceOnUse" x2="0">
   <stop style="stop-color:#000;stop-opacity:0"/>
   <stop offset="0.5" style="stop-color:#000;stop-opacity:0.404"/>
   <stop offset="1" style="stop-color:#000;stop-opacity:0"/>
  </linearGradient>
  <radialGradient cx="605.71" cy="486.65" gradientTransform="matrix(.03279 0 0 .01647 .15414 13.7038)" id="radial0" r="117.14" gradientUnits="userSpaceOnUse">
   <stop style="stop-color:#000;stop-opacity:0.404"/>
   <stop offset="1" style="stop-color:#000;stop-opacity:0"/>
  </radialGradient>
  <radialGradient cx="5" cy="7.1" gradientTransform="matrix(2.28528 .06529 -.04762 1.66667 -6.08829 -.1598)" id="radial3" r="21" gradientUnits="userSpaceOnUse">
   <stop style="stop-color:#fff;stop-opacity:0.4"/>
   <stop offset="1" style="stop-color:#fff;stop-opacity:0"/>
  </radialGradient>
  <radialGradient cx="605.71" cy="486.65" gradientTransform="matrix(-.03279 0 0 .01647 23.84609 13.7038)" id="radial1" r="117.14" gradientUnits="userSpaceOnUse" xlink:href="#radial0"/>
  <radialGradient cx="9" cy="19.15" gradientTransform="matrix(1.90909 0 0 1.40909 -8.18182 -4.98219)" id="radial2" r="22" gradientUnits="userSpaceOnUse">
   <stop style="stop-color:#787878"/>
   <stop offset="1" style="stop-color:#3c3c3c"/>
  </radialGradient>
 </defs>
 <path d="m 4.082 19.742 l 15.836 0 l 0 4 l -15.836 0 Z" style="fill:url(#linear0)"/>
 <path d="m 19.918 19.742 c 0 0 0 4 0 4 c 1.688 0.004 4.082 -0.898 4.082 -2 c 0 -1.105 -1.883 -2 -4.082 -2 Z" style="fill:url(#radial0)"/>
 <path d="m 4.082 19.742 c 0 0 0 4 0 4 c -1.687 0.004 -4.082 -0.898 -4.082 -2 c 0 -1.105 1.887 -2 4.082 -2 Z" style="fill:url(#radial1)"/>
 <g style="stroke-linecap:round">
  <path d="m 3.32 8.5 l 41.36 0 c 0.453 0 0.82 0.367 0.82 0.82 l 0 34.36 c 0 0.453 -0.367 0.82 -0.82 0.82 l -41.36 0 c -0.453 0 -0.82 -0.367 -0.82 -0.82 l 0 -34.36 c 0 -0.453 0.367 -0.82 0.82 -0.82 Z" transform="scale(.5)" style="fill:url(#radial2);stroke:#282828;stroke-linejoin:round"/>
  <path d="m 3.5 9.5 l 41 0 l 0 34 l -41 0 Z" transform="scale(.5)" style="fill:none;stroke:url(#radial3)"/>
 </g>
 <path d="m 3 5.5 c -0.277 0 -0.5 0.223 -0.5 0.5 l 0 5.5 l 0.5 0 l 0 9 c 0 0.234 0.266 0.5 0.5 0.5 l 17 0 c 0.234 0 0.5 -0.266 0.5 -0.5 l 0 -9 l 0.5 0 l 0 -5.5 c 0 -0.277 -0.223 -0.5 -0.5 -0.5 Z" style="fill:url(#linear1)"/>
 <path d="m 3.5 11 l 0 8.5 c 0 0.234 0.266 0.5 0.5 0.5 l 16 0 c 0.234 0 0.5 -0.266 0.5 -0.5 l 0 -8.5" style="fill:#fff"/>
 <path d="m 3.5 11.5 l 0 -5.04 c 0 -0.215 0.266 -0.457 0.5 -0.457 l 16 0 c 0.234 0 0.5 0.242 0.5 0.457 l 0 5.04" style="fill:url(#linear2)"/>
 <path d="m 58.08 31 l 5.924 -7 l 5.924 7 Z" transform="matrix(.31651 0 0 .32143 -8.25658 -.58928)" style="fill:#fff;stroke:#ba5d12;stroke-linejoin:round;stroke-width:0.784"/>
 <g style="fill:#282828">
  <path d="m 11.984 17.352 l 0.961 0.316 c -0.063 0.293 -0.164 0.539 -0.305 0.734 c -0.137 0.199 -0.313 0.348 -0.516 0.449 c -0.207 0.098 -0.465 0.148 -0.785 0.148 c -0.383 0 -0.699 -0.063 -0.945 -0.184 c -0.242 -0.121 -0.453 -0.336 -0.629 -0.645 c -0.176 -0.309 -0.266 -0.703 -0.266 -1.18 c 0 -0.641 0.156 -1.133 0.465 -1.477 c 0.313 -0.344 0.754 -0.516 1.324 -0.516 c 0.449 0 0.797 0.098 1.051 0.297 c 0.258 0.195 0.449 0.496 0.57 0.906 l -0.965 0.234 c -0.035 -0.117 -0.07 -0.203 -0.105 -0.258 c -0.063 -0.094 -0.137 -0.164 -0.227 -0.211 c -0.086 -0.051 -0.188 -0.074 -0.297 -0.074 c -0.246 0 -0.438 0.109 -0.57 0.328 c -0.098 0.16 -0.148 0.414 -0.148 0.762 c 0 0.426 0.059 0.723 0.18 0.883 c 0.117 0.156 0.285 0.234 0.5 0.234 c 0.211 0 0.367 -0.063 0.473 -0.191 c 0.109 -0.129 0.188 -0.313 0.234 -0.559"/>
  <path d="m 13.48 15.07 l 2.703 0 l 0 0.828 l -1.605 0 l 0 0.676 l 1.371 0 l 0 0.781 l -1.371 0 l 0 1.578 l -1.098 0 l 0 -3.863"/>
  <path d="m 19.5 18.93 l -2.953 0 c 0.035 -0.316 0.137 -0.617 0.309 -0.895 c 0.172 -0.281 0.492 -0.613 0.965 -0.996 c 0.289 -0.23 0.473 -0.41 0.555 -0.531 c 0.078 -0.121 0.121 -0.234 0.121 -0.344 c 0 -0.117 -0.043 -0.219 -0.121 -0.301 c -0.078 -0.086 -0.18 -0.129 -0.301 -0.129 c -0.125 0 -0.227 0.043 -0.309 0.129 c -0.078 0.086 -0.133 0.238 -0.16 0.457 l -0.984 -0.086 c 0.039 -0.305 0.109 -0.539 0.211 -0.707 c 0.105 -0.172 0.25 -0.301 0.438 -0.391 c 0.188 -0.09 0.445 -0.137 0.777 -0.137 c 0.348 0 0.617 0.043 0.809 0.129 c 0.191 0.086 0.344 0.219 0.453 0.398 c 0.113 0.176 0.168 0.379 0.168 0.598 c 0 0.238 -0.063 0.461 -0.191 0.676 c -0.125 0.215 -0.355 0.449 -0.688 0.707 c -0.199 0.148 -0.332 0.254 -0.398 0.313 c -0.066 0.063 -0.145 0.141 -0.234 0.234 l 1.535 0 l 0 0.875"/>
 </g>
</svg>
